assets/icons/zapier.svg

<svg width="20" height="21" viewBox="0 0 20 21" fill="none" xmlns="http://www.w3.org/2000/svg">
<g clip-path="url(#clip0_0_101)">
<path d="M10 20.4822C15.5228 20.4822 20 16.0051 20 10.4822C20 4.95937 15.5228 0.482216 10 0.482216C4.47715 0.482216 0 4.95937 0 10.4822C0 16.0051 4.47715 20.4822 10 20.4822Z" fill="#FF4A00"/>
<path d="M11.25 10.4844C11.2501 10.8446 11.185 11.2019 11.058 11.5391C10.7206 11.6666 10.3629 11.732 10.0021 11.7322H9.99785C9.6376 11.7322 9.2803 11.6672 8.94316 11.5402C8.81564 11.2028 8.7502 10.8451 8.75 10.4844V10.4801C8.75004 10.1198 8.81508 9.76253 8.94199 9.42538C9.27942 9.29785 9.63713 9.23241 9.99785 9.23222H10.0021C10.3628 9.23207 10.7205 9.29718 11.058 9.4244C11.185 9.76153 11.2501 10.1188 11.25 10.4791V10.4834V10.4844ZM14.9305 9.64882H12.0117L14.0756 7.58515C13.9135 7.3578 13.7327 7.14437 13.5352 6.94706C13.3378 6.74978 13.1244 6.56927 12.8971 6.40741L10.8334 8.4705V5.55175C10.5589 5.50564 10.2811 5.48238 10.0027 5.48222H9.99746C9.71913 5.48238 9.44129 5.50564 9.1668 5.55175V8.4705L7.10293 6.40663C6.87559 6.56874 6.66216 6.74951 6.46484 6.94706C6.26764 7.14428 6.0872 7.35758 5.92539 7.58475L7.98828 9.64882H5.06953C5.06953 9.64882 5 10.1971 5 10.4805V10.484C5.00011 10.7626 5.02337 11.0408 5.06953 11.3156H7.98828L5.92441 13.3793C6.24896 13.8349 6.64727 14.2333 7.10293 14.5578L9.1666 12.4939V15.4127C9.44083 15.4587 9.71841 15.482 9.99648 15.4822H10.0037C10.2817 15.482 10.5592 15.4587 10.8334 15.4127V12.4939L12.8971 14.5578C13.1244 14.3957 13.3378 14.2149 13.5352 14.0174C13.7325 13.82 13.9131 13.6066 14.075 13.3793L12.0117 11.3156H14.9305C14.9765 11.0414 14.9998 10.7638 15 10.4857V10.4785C14.9998 10.2005 14.9765 9.92299 14.9305 9.64882Z" fill="white"/>
</g>
<defs>
<clipPath id="clip0_0_101">
<rect width="20" height="20" fill="white" transform="translate(0 0.482216)"/>
</clipPath>
</defs>
</svg>

<svg width="20" height="21" viewBox="0 0 20 21" fill="none" xmlns="http://www.w3.org/2000/svg"><g clip-path="url(#clip0_0_101)"><path d="M10 20.482c5.523 0 10-4.477 10-10s-4.477-10-10-10-10 4.477-10 10 4.477 10 10 10z" fill="#FF4A00"/><path d="M11.25 10.484c0 .36-.065.718-.192 1.055a2.992 2.992 0 0 1-1.056.192h-.004c-.36 0-.718-.065-1.055-.192a2.99 2.99 0 0 1-.193-1.056v-.004c0-.36.065-.717.192-1.055a2.99 2.99 0 0 1 1.056-.193h.004c.36 0 .719.065 1.056.192.127.338.192.695.192 1.055v.004zm3.68-.835h-2.918l2.064-2.065a5.03 5.03 0 0 0-1.179-1.178L10.833 8.47V5.552a5.03 5.03 0 0 0-.83-.07h-.006c-.278 0-.556.024-.83.07V8.47L7.103 6.408a5.027 5.027 0 0 0-1.178 1.178l2.063 2.064H5.07c0-.001-.07.547-.07.83v.004c0 .279.023.557.07.832h2.918l-2.064 2.063a5.03 5.03 0 0 0 1.179 1.178l2.064-2.064v2.919c.274.046.551.07.83.07h.007c.278 0 .555-.024.83-.07v-2.92l2.063 2.065a5.038 5.038 0 0 0 1.178-1.179l-2.063-2.064h2.918c.046-.275.07-.552.07-.83v-.007c0-.28-.024-.557-.07-.831z" fill="white"/></g><defs><clipPath id="clip0_0_101"><rect width="20" height="20" fill="white" transform="translate(0 0.482216)"/></clipPath></defs></svg>
